packages/icons/src/copy.svg

<svg xmlns="http://www.w3.org/2000/svg" width="24" height="24" fill="none" viewBox="0 0 24 24">
  <path fill="#000" d="M16 2H6c-1.1 0-2 .9-2 2v12h2V4h10V2Zm2 4h-8c-1.1 0-2 .9-2 2v12c0 1.1.9 2 2 2h8c1.1 0 2-.9 2-2V8c0-1.1-.9-2-2-2Zm0 14h-8V8h8v12Z"/>
</svg>

<svg width="24" height="24" viewBox="0 0 24 24" fill="none" xmlns="http://www.w3.org/2000/svg">
<path d="M16 2H6C4.9 2 4 2.9 4 4V16H6V4H16V2ZM18 6H10C8.9 6 8 6.9 8 8V20C8 21.1 8.9 22 10 22H18C19.1 22 20 21.1 20 20V8C20 6.9 19.1 6 18 6ZM18 20H10V8H18V20Z" fill="black"/>
</svg>
